X:1
T:My soul, praise thou the Lord always
T:John Alcock jr. (of Walsall)
T:Text: John Hopkins, on Ps. 146.
T:Edition by Edmund Gooch released into the public domain, October 2010. As such, it may be freely copied and performed.
T:My soul, praise thou the Lord always
T:Psalm 146
C:John Alcock jr.
C:(of Walsall)
Z:Text: John Hopkins,
Z:on Ps. 146.
%%score [ 1 2 3 4 ]
L:1/8
M:3/2
K:G
V:1 treble nm="SOPRANO" snm="S."
V:2 treble nm="ALTO" snm="A."
V:3 treble-8 transpose=-12 nm="TENOR" snm="T."
V:4 bass nm="BASS" snm="B."
V:1
"^Brisk" D4 | (G3 A B4) d4 | B8 A4 | (B4 c2 B2) (A2 G2) | F8 c4 | (B3 c d4) G4 | (A4 B4) c4 | %7
w: Who|made _ _ the|earth and|wa- * * ters _|deep, The|heav’ns _ _ most|high _ with-|
w: My|soul, _ _ praise|thou the|Lord _ _ al- *|ways; My|God _ _ I|will _ con-|
w: Bless-|ed _ _ and|hap- py|are _ _ all _|they Whom|Ja- * * cob’s|God _ doth|
 B8 G4 | (B3 A G4) B4 | d8 d4 | (B3 e d4) T^c4 | d8 c4 | (B3 c d4) G4 | (G3 A B4) TA4 | %14
w: al; Who|doth _ _ his|word and|pro- * * mise|keep In|truth, _ _ and|e- * * ver|
w: fess: While|breath _ _ and|life pro-|long _ _ my|days, My|tongue _ _ no|time _ _ shall|
w: aid, And|he _ _ whose|hope doth|not _ _ de-|cay, But|on _ _ the|Lord _ _ is|
 !fermata!G8 |] %15
w: shall.|
w: cease.|
w: stayed:|
V:2
 B,4 | (D4 G4) A4 | G8 F4 | G8 T^C4 | D8 G4 | (D4 G4) G4 | G8 TF4 | G8 D4 | (D3 C B,4) G4 | A8 A4 | %10
w: Who|made _ the|earth and|wa- ters|deep, The|heav’ns _ most|high with-|al; Who|doth _ _ his|word and|
w: My|soul, _ praise|thou the|Lord al-|ways; My|God _ I|will con-|fess: While|breath _ _ and|life pro-|
w: Bless-|ed _ and|hap- py|are all|they Whom|Ja- * cob’s|God doth|aid, And|he _ _ whose|hope doth|
 (G4 F4) TE4 | F8 A4 | G8 D4 | (E3 F G4) TF4 | !fermata!G8 |] %15
w: pro- * mise|keep In|truth, and|e- * * ver|shall.|
w: long _ my|days, My|tongue no|time _ _ shall|cease.|
w: not _ de-|cay, But|on the|Lord _ _ is|stayed:|
V:3
 G4 | (B3 c d4) d4 | d8 d4 | d4 e8 | A8 (G3 A) | (B3 A B4) d4 | e4 d8 | d8 B4 | (G4 d4) d4 | %9
w: Who|made _ _ the|earth and|wa- ters|deep, The _|heav’ns _ _ most|high with-|al; Who|doth _ his|
w: My|soul, _ _ praise|thou the|Lord al-|ways; My _|God _ _ I|will con-|fess: While|breath _ and|
w: Bless-|ed _ _ and|hap- py|are all|they Whom _|Ja- * * cob’s|God doth|aid, And|he _ whose|
 d8 d4 | e4 A8 | A8 d4 | (d3 c B4) G4 | e4 (d6 c2) | !fermata!B8 |] %15
w: word and|pro- mise|keep In|truth, _ _ and|e- ver _|shall.|
w: life pro-|long my|days, My|tongue _ _ no|time shall _|cease.|
w: hope doth|not de-|cay, But|on _ _ the|Lord is _|stayed:|
V:4
 G,4 | G,8 F,4 | G,8 D,4 | (G,4 C,4) E,4 | D,8 (E,3 F,) | G,8 B,,4 | C,4 D,8 | G,,8 G,4 | %8
w: Who|made the|earth and|wa- * ters|deep, The _|heav’ns most|high with-|al; Who|
w: My|soul, praise|thou the|Lord _ al-|ways; My _|God I|will con-|fess: While|
w: Bless-|ed and|hap- py|are _ all|they Whom _|Ja- cob’s|God doth|aid, And|
"^Emendations: Clefs in the source are treble, alto, tenor and bass. The first verse only of the text is given in the source,where the vocal bass part is also figured: figuring has been omitted to facilitate the editorial underlaying of three otherverses selected from the text." G,8 G,4 | %9
w: doth his|
w: breath and|
w: he whose|
 F,8 F,4 | (G,4 A,4) A,,4 | D,8 F,4 | G,8 B,,4 | C,4 D,8 | !fermata!G,,8 |] %15
w: word and|pro- * mise|keep In|truth, and|e- ver|shall.|
w: life pro-|long _ my|days, My|tongue no|time shall|cease.|
w: hope doth|not _ de-|cay, But|on the|Lord is|stayed:|

